X:253
T:Steirer (51.)
C:traditionell
A:Salzkammergut
S:MIDI erhalten von Christian Amon. Nach einer kopie im besitz von Johann Stoeckl eines manuscriptes. Stoeckl(zitiert von Amon): "diese sammlung wurde 1935 im hause der familie Hohenlohe-Schillingfuerst gefunden. Sie wurde von einem der beiden brueder Steinegger 1866 verfasst. Die originale sind im Ausseer Kammerhofmuseum".
M:3/4
L:1/8
K:G
V:1
Bc |\
db gd Bd | ec' ag fd' | d'2 c'f c'f | gb dg Bc |\
db gd Bd | ec' ag fd' | d'2 c'f c'f | g4 |*
V:2
GA |\
Bg dB GB | ca fd db | b2 ad ad | dg Bd GA |\
Bg dB GB | ca fd db | b2 ad ad | B4 |*
